X: 81
T:Wind Hornpipe,The,aka. JMT.079
M:4/4
L:1/8
Q:160
C:untitled in MS
S:J.Moore,Tyneside,1841.(54b)
R:Hornpipe
O:England
A:Northumbria
N:My Title..CGP..
Z:vmp.Chris Partington
K:C
GB||:c2ecG2AB|c2egc'2ge|fdgf ecge|dcde dfed|!
c2ecG2AB|cdef gabc'|c'bd'c' bag^f|1g^fga g=fed:|2 g2g2g2||!
|:gf|eg^fg agfg|c'g^fg agfg|=fgef decd|BcAB GAFG|!
EGce gc'bc'|afdc BAGF|EGcf edcB|d2c2c2:||
